X:1775
T:Strathearn Waltz, The
C:Nigel Gatherer
Z:Nigel Gatherer
L:1/4
M:3/4
K:G
D|B2 d|c2 A|G2 B|A>F D|C2 D|B,>D G|G>A B|A2 D|
B>c d|c A F|G>A B|A F D|B,>D G|C>E G|F>G A|G2:|
B/d/|g2 b|a>f d|c2 e|d>B G|D G G|D A A|B>A G/B/|A2 B/d/|
g>a b/g/|a f d|c>d e/c/|d B G|C2 D|B>D G/B/|A.G F/A/|G2:|
